assets/stickers/emoticons/stickers/imgly_sticker_emoticons_tired.svg

<svg height="60" viewBox="0 0 62 60" width="62" xmlns="http://www.w3.org/2000/svg"><g fill="none"><g transform="translate(0 1)"><path d="m61.3 35.2c0 13-11.9 23.5-30.3 23.5s-30.3-10.5-30.3-23.5 11.9-32.5 30.3-32.5 30.3 19.5 30.3 32.5z" fill="#f7910b"/><path d="m61.3 35.2c0 13-11.9 19.5-30.3 19.5s-30.3-6.5-30.3-19.5 11.9-34.5 30.3-34.5 30.3 21.5 30.3 34.5z" fill="#f7910b"/><path d="m31 .7c18.4 0 30.3 21.5 30.3 34.5s-11.9 19.5-30.3 19.5" fill="#f9a908"/><path d="m61.3 35.2c0 13-11.9 19.5-30.3 19.5s-30.3-6.5-30.3-19.5 11.9-32.5 30.3-32.5 30.3 19.5 30.3 32.5z" fill="#f9a908"/><path d="m.7 35.2c0-13 11.9-32.5 30.3-32.5" fill="#f9c55d"/><path d="m31 2.7c18.4 0 30.3 19.5 30.3 32.5s-11.9 23.5-30.3 23.5" fill="#f7910b"/><path d="m31 2.7c18.4 0 30.3 19.5 30.3 32.5" fill="#ea7103"/><ellipse cx="9.3" cy="32.1" fill="#f7910b" rx="1" ry="1"/><ellipse cx="4.8" cy="34.1" fill="#f7910b" rx="1.1" ry="1.1"/><circle cx="7.8" cy="30.1" fill="#f7910b" r="1"/><circle cx="12.4" cy="32" fill="#f7910b" r="1"/><circle cx="51.6" cy="32.5" fill="#f9a908" r="1"/><circle cx="54.1" cy="33.9" fill="#f9a908" r="1"/><circle cx="48.8" cy="25.1" fill="#f9a908" r="1"/><ellipse cx="48.3" cy="36.7" fill="#f9a908" rx="1.3" ry="1.3"/><circle cx="55.5" cy="36.8" fill="#f9a908" r="1"/><circle cx="8.3" cy="36.2" fill="#f7910b" r="1"/><circle cx="9.1" cy="27.8" fill="#f7910b" r="1"/><g fill="#f9a908"><circle cx="3.8" cy="14" r="1.1"/><ellipse cx="7" cy="10.5" rx="1" ry="1"/><circle cx="58.2" cy="16.4" r="1"/><ellipse cx="57.4" cy="13.5" rx="1" ry="1"/><circle cx="60" cy="14" r="1"/><ellipse cx="5" cy="17" rx="1" ry="1"/></g><path d="m38.2 45.6c0 2.6-3.3 7.2-7.4 7.2s-7.4-4.6-7.4-7.2" fill="#f7910b"/><g transform="translate(15 18)"><circle cx="4.6" cy="5.7" fill="#d87703" r="3.5"/><path d="m30.9 5.7c0 1.9-1.6 3.5-3.5 3.5s-3.5-1.6-3.5-3.5 1.6-3.5 3.5-3.5c2 0 3.5 1.6 3.5 3.5z" fill="#d87703"/><circle cx="4.6" cy="4.7" fill="#1e4784" r="3.5"/><path d="m4.6 1.2c1.9 0 3.5 1.6 3.5 3.5s-1.6 3.5-3.5 3.5" fill="#00233f"/><path d="m30.9 4.7c0 1.9-1.6 3.5-3.5 3.5s-3.5-1.6-3.5-3.5 1.6-3.5 3.5-3.5c2 0 3.5 1.6 3.5 3.5z" fill="#1e4784"/><path d="m27.4 1.2c1.9 0 3.5 1.6 3.5 3.5s-1.6 3.5-3.5 3.5" fill="#00233f"/><path d="m.5 4.3c0-2.3 1.8-4.1 4.1-4.1s4.1 1.8 4.1 4.1" fill="#f9a908"/><path d="m23.3 4.3c0-2.3 1.8-4.1 4.1-4.1s4.1 1.8 4.1 4.1" fill="#f7910b"/></g><g transform="translate(11 26)"><path d="m15.8 2.5c0 1.2-3.5.7-7.8.7s-7.8.6-7.8-.7c0-1.2 3.5-2.2 7.8-2.2s7.8 1 7.8 2.2z" fill="#f9c55d"/><path d="m39.8 2.5c0 1.2-3.5.7-7.8.7s-7.8.6-7.8-.7c0-1.2 3.5-2.2 7.8-2.2s7.8 1 7.8 2.2z" fill="#f9a908"/></g></g><g transform="translate(23 39)"><path d="m15.6 5.8c0 3.8-3.4 5.3-7.6 5.3s-7.6-1.5-7.6-5.3 3.4-5.8 7.6-5.8 7.6 2 7.6 5.8z" fill="#c42260"/><path d="m15.5 6.9c-.9-.2-1.9-.3-3-.3-1.6 0-3.2.2-4.5.7-1.3-.4-2.9-.7-4.5-.7-1 0-2 .1-3 .3.6 3 3.7 4.3 7.5 4.3 3.8-.1 6.9-1.3 7.5-4.3z" fill="#e2446e"/><path d="m15.3 4c-.9-3-3.8-4-7.3-4s-6.4 1-7.3 4z" fill="#99144a"/></g><g transform="translate(46)"><path d="m11.2 12.1-5-11.7-5 11.7c-.3.7-.5 1.4-.5 2.2 0 3 2.4 5.4 5.4 5.4s5.4-2.4 5.4-5.4c.1-.8 0-1.6-.3-2.2z" fill="#19daf4"/><path d="m6.2 19.7c3 0 5.4-2.4 5.4-5.4 0-.8-.2-1.6-.5-2.2l-5-11.7" fill="#0eb2cc"/></g><g transform="translate(47 19)"><path d="m9.4 10-4.2-9.9-4.2 9.9c-.3.6-.4 1.2-.4 1.9 0 2.5 2 4.6 4.6 4.6 2.5 0 4.6-2 4.6-4.6 0-.7-.2-1.3-.4-1.9z" fill="#19daf4"/><path d="m5.2 16.5c2.5 0 4.6-2 4.6-4.6 0-.7-.1-1.3-.4-1.9l-4.2-9.8" fill="#0eb2cc"/></g><g fill="#92cfdd" transform="translate(4)"><path d="m1 11.2c0 .2-.3.5-.5.5-.3 0-.5-.2-.5-.5v-6.3c0-.2.2-.5.5-.5.2 0 .5.2.5.5z"/><path d="m4 8.5c0 .2-.2.5-.5.5-.3 0-.5-.2-.5-.5v-6.4c0-.2.2-.5.5-.5.3.1.5.3.5.5z"/><path d="m7 7.6c0 .2-.2.5-.5.5-.3-.1-.5-.3-.5-.5v-6.4c0-.2.2-.5.5-.5.3.1.5.3.5.5z"/></g><g fill="#19bca4" transform="translate(18 9)"><path d="m5.2 2.2c0 1-1.1.5-2.5.5s-2.5.5-2.5-.5 1.1-1.7 2.5-1.7 2.5.7 2.5 1.7z"/><path d="m20.8 2.2c0 1 1.1.5 2.5.5s2.5.5 2.5-.5-1.1-1.7-2.5-1.7-2.5.7-2.5 1.7z"/></g></g></svg>

<?xml version="1.0" encoding="UTF-8"?>
<svg width="62px" height="60px" viewBox="0 0 62 60" version="1.1" xmlns="http://www.w3.org/2000/svg" xmlns:xlink="http://www.w3.org/1999/xlink">
    <!-- Generator: Sketch 43.1 (39012) - http://www.bohemiancoding.com/sketch -->
    <title>imgly_sticker_emoticons_tired</title>
    <desc>Created with Sketch.</desc>
    <defs></defs>
    <g id="Page-1" stroke="none" stroke-width="1" fill="none" fill-rule="evenodd">
        <g id="tired" fill-rule="nonzero">
            <g id="Group" transform="translate(0.000000, 1.000000)">
                <path d="M61.3,35.2 C61.3,48.2 49.4,58.7 31,58.7 C12.6,58.7 0.7,48.2 0.7,35.2 C0.7,22.2 12.6,2.7 31,2.7 C49.4,2.7 61.3,22.2 61.3,35.2 Z" id="Shape" fill="#F7910B"></path>
                <path d="M61.3,35.2 C61.3,48.2 49.4,54.7 31,54.7 C12.6,54.7 0.7,48.2 0.7,35.2 C0.7,22.2 12.6,0.7 31,0.7 C49.4,0.7 61.3,22.2 61.3,35.2 Z" id="Shape" fill="#F7910B"></path>
                <path d="M31,0.7 C49.4,0.7 61.3,22.2 61.3,35.2 C61.3,48.2 49.4,54.7 31,54.7" id="Shape" fill="#F9A908"></path>
                <path d="M61.3,35.2 C61.3,48.2 49.4,54.7 31,54.7 C12.6,54.7 0.7,48.2 0.7,35.2 C0.7,22.2 12.6,2.7 31,2.7 C49.4,2.7 61.3,22.2 61.3,35.2 Z" id="Shape" fill="#F9A908"></path>
                <path d="M0.7,35.2 C0.7,22.2 12.6,2.7 31,2.7" id="Shape" fill="#F9C55D"></path>
                <path d="M31,2.7 C49.4,2.7 61.3,22.2 61.3,35.2 C61.3,48.2 49.4,58.7 31,58.7" id="Shape" fill="#F7910B"></path>
                <path d="M31,2.7 C49.4,2.7 61.3,22.2 61.3,35.2" id="Shape" fill="#EA7103"></path>
                <ellipse id="Oval" fill="#F7910B" cx="9.3" cy="32.1" rx="1" ry="1"></ellipse>
                <ellipse id="Oval" fill="#F7910B" cx="4.8" cy="34.1" rx="1.1" ry="1.1"></ellipse>
                <circle id="Oval" fill="#F7910B" cx="7.8" cy="30.1" r="1"></circle>
                <circle id="Oval" fill="#F7910B" cx="12.4" cy="32" r="1"></circle>
                <circle id="Oval" fill="#F9A908" cx="51.6" cy="32.5" r="1"></circle>
                <circle id="Oval" fill="#F9A908" cx="54.1" cy="33.9" r="1"></circle>
                <circle id="Oval" fill="#F9A908" cx="48.8" cy="25.1" r="1"></circle>
                <ellipse id="Oval" fill="#F9A908" cx="48.3" cy="36.7" rx="1.3" ry="1.3"></ellipse>
                <circle id="Oval" fill="#F9A908" cx="55.5" cy="36.8" r="1"></circle>
                <circle id="Oval" fill="#F7910B" cx="8.3" cy="36.2" r="1"></circle>
                <circle id="Oval" fill="#F7910B" cx="9.1" cy="27.8" r="1"></circle>
                <circle id="Oval" fill="#F9A908" cx="3.8" cy="14" r="1.1"></circle>
                <ellipse id="Oval" fill="#F9A908" cx="7" cy="10.5" rx="1" ry="1"></ellipse>
                <circle id="Oval" fill="#F9A908" cx="58.2" cy="16.4" r="1"></circle>
                <ellipse id="Oval" fill="#F9A908" cx="57.4" cy="13.5" rx="1" ry="1"></ellipse>
                <circle id="Oval" fill="#F9A908" cx="60" cy="14" r="1"></circle>
                <ellipse id="Oval" fill="#F9A908" cx="5" cy="17" rx="1" ry="1"></ellipse>
                <path d="M38.2,45.6 C38.2,48.2 34.9,52.8 30.8,52.8 C26.7,52.8 23.4,48.2 23.4,45.6" id="Shape" fill="#F7910B"></path>
                <g transform="translate(15.000000, 18.000000)">
                    <circle id="Oval" fill="#D87703" cx="4.6" cy="5.7" r="3.5"></circle>
                    <path d="M30.9,5.7 C30.9,7.6 29.3,9.2 27.4,9.2 C25.5,9.2 23.9,7.6 23.9,5.7 C23.9,3.8 25.5,2.2 27.4,2.2 C29.4,2.2 30.9,3.8 30.9,5.7 Z" id="Shape" fill="#D87703"></path>
                    <circle id="Oval" fill="#1E4784" cx="4.6" cy="4.7" r="3.5"></circle>
                    <path d="M4.6,1.2 C6.5,1.2 8.1,2.8 8.1,4.7 C8.1,6.6 6.5,8.2 4.6,8.2" id="Shape" fill="#00233F"></path>
                    <path d="M30.9,4.7 C30.9,6.6 29.3,8.2 27.4,8.2 C25.5,8.2 23.9,6.6 23.9,4.7 C23.9,2.8 25.5,1.2 27.4,1.2 C29.4,1.2 30.9,2.8 30.9,4.7 Z" id="Shape" fill="#1E4784"></path>
                    <path d="M27.4,1.2 C29.3,1.2 30.9,2.8 30.9,4.7 C30.9,6.6 29.3,8.2 27.4,8.2" id="Shape" fill="#00233F"></path>
                    <path d="M0.5,4.3 C0.5,2 2.3,0.2 4.6,0.2 C6.9,0.2 8.7,2 8.7,4.3" id="Shape" fill="#F9A908"></path>
                    <path d="M23.3,4.3 C23.3,2 25.1,0.2 27.4,0.2 C29.7,0.2 31.5,2 31.5,4.3" id="Shape" fill="#F7910B"></path>
                </g>
                <g transform="translate(11.000000, 26.000000)" id="Shape">
                    <path d="M15.8,2.5 C15.8,3.7 12.3,3.2 8,3.2 C3.7,3.2 0.2,3.8 0.2,2.5 C0.2,1.3 3.7,0.3 8,0.3 C12.3,0.3 15.8,1.3 15.8,2.5 Z" fill="#F9C55D"></path>
                    <path d="M39.8,2.5 C39.8,3.7 36.3,3.2 32,3.2 C27.7,3.2 24.2,3.8 24.2,2.5 C24.2,1.3 27.7,0.3 32,0.3 C36.3,0.3 39.8,1.3 39.8,2.5 Z" fill="#F9A908"></path>
                </g>
            </g>
            <g id="Group" transform="translate(23.000000, 39.000000)">
                <path d="M15.6,5.8 C15.6,9.6 12.2,11.1 8,11.1 C3.8,11.1 0.4,9.6 0.4,5.8 C0.4,2 3.8,0 8,0 C12.2,0 15.6,2 15.6,5.8 Z" id="Shape" fill="#C42260"></path>
                <path d="M15.5,6.9 C14.6,6.7 13.6,6.6 12.5,6.6 C10.9,6.6 9.3,6.8 8,7.3 C6.7,6.9 5.1,6.6 3.5,6.6 C2.5,6.6 1.5,6.7 0.5,6.9 C1.1,9.9 4.2,11.2 8,11.2 C11.8,11.1 14.9,9.9 15.5,6.9 Z" id="Shape" fill="#E2446E"></path>
                <path d="M15.3,4 C14.4,1 11.5,0 8,0 C4.5,0 1.6,1 0.7,4 L15.3,4 Z" id="Shape" fill="#99144A"></path>
            </g>
            <g id="Group" transform="translate(46.000000, 0.000000)">
                <path d="M11.2,12.1 L11.2,12.1 L6.2,0.4 L1.2,12.1 L1.2,12.1 C0.9,12.8 0.7,13.5 0.7,14.3 C0.7,17.3 3.1,19.7 6.1,19.7 C9.1,19.7 11.5,17.3 11.5,14.3 C11.6,13.5 11.5,12.7 11.2,12.1 Z" id="Shape" fill="#19DAF4"></path>
                <path d="M6.2,19.7 C9.2,19.7 11.6,17.3 11.6,14.3 C11.6,13.5 11.4,12.7 11.1,12.1 L11.1,12.1 L6.1,0.4" id="Shape" fill="#0EB2CC"></path>
            </g>
            <g id="Group" transform="translate(47.000000, 19.000000)">
                <path d="M9.4,10 L9.4,10 L5.2,0.1 L1,10 L1,10 C0.7,10.6 0.6,11.2 0.6,11.9 C0.6,14.4 2.6,16.5 5.2,16.5 C7.7,16.5 9.8,14.5 9.8,11.9 C9.8,11.2 9.6,10.6 9.4,10 Z" id="Shape" fill="#19DAF4"></path>
                <path d="M5.2,16.5 C7.7,16.5 9.8,14.5 9.8,11.9 C9.8,11.2 9.7,10.6 9.4,10 L9.4,10 L5.2,0.2" id="Shape" fill="#0EB2CC"></path>
            </g>
            <g id="Group" transform="translate(4.000000, 0.000000)" fill="#92CFDD">
                <path d="M1,11.2 C1,11.4 0.7,11.7 0.5,11.7 L0.5,11.7 C0.2,11.7 0,11.5 0,11.2 L0,4.9 C0,4.7 0.2,4.4 0.5,4.4 L0.5,4.4 C0.7,4.4 1,4.6 1,4.9 L1,11.2 Z" id="Shape"></path>
                <path d="M4,8.5 C4,8.7 3.8,9 3.5,9 L3.5,9 C3.2,9 3,8.8 3,8.5 L3,2.1 C3,1.9 3.2,1.6 3.5,1.6 L3.5,1.6 C3.8,1.7 4,1.9 4,2.1 L4,8.5 Z" id="Shape"></path>
                <path d="M7,7.6 C7,7.8 6.8,8.1 6.5,8.1 L6.5,8.1 C6.2,8 6,7.8 6,7.6 L6,1.2 C6,1 6.2,0.7 6.5,0.7 L6.5,0.7 C6.8,0.8 7,1 7,1.2 L7,7.6 Z" id="Shape"></path>
            </g>
            <g id="Group" transform="translate(18.000000, 9.000000)" fill="#19BCA4">
                <path d="M5.2,2.2 C5.2,3.2 4.1,2.7 2.7,2.7 C1.3,2.7 0.2,3.2 0.2,2.2 C0.2,1.2 1.3,0.5 2.7,0.5 C4.1,0.5 5.2,1.2 5.2,2.2 Z" id="Shape"></path>
                <path d="M20.8,2.2 C20.8,3.2 21.9,2.7 23.3,2.7 C24.7,2.7 25.8,3.2 25.8,2.2 C25.8,1.2 24.7,0.5 23.3,0.5 C21.9,0.5 20.8,1.2 20.8,2.2 Z" id="Shape"></path>
            </g>
        </g>
    </g>
</svg>
